svg/color/cir.svg

<?xml version="1.0" encoding="UTF-8" ?>
<!DOCTYPE svg PUBLIC "-//W3C//DTD SVG 1.1//EN" "http://www.w3.org/Graphics/SVG/1.1/DTD/svg11.dtd">
<svg width="250pt" height="250pt" viewBox="0 0 250 250" version="1.1" xmlns="http://www.w3.org/2000/svg">
<g id="#ffffffff">
<path fill="#ffffff" opacity="1.00" d=" M 0.00 0.00 L 115.56 0.00 C 110.38 0.76 105.19 1.44 100.02 2.29 C 72.58 7.74 47.25 22.85 29.27 44.28 C 18.16 57.24 10.04 72.63 5.04 88.91 C 2.62 97.63 1.07 106.58 0.00 115.55 L 0.00 0.00 Z" />
<path fill="#ffffff" opacity="1.00" d=" M 135.44 0.00 L 250.00 0.00 L 250.00 115.55 C 248.75 107.75 248.18 99.80 245.86 92.22 C 241.40 76.06 233.91 60.68 223.42 47.57 C 207.43 27.23 185.08 11.99 160.20 4.80 C 152.16 2.22 143.73 1.37 135.44 0.00 Z" />
<path fill="#ffffff" opacity="1.00" d=" M 103.33 70.45 C 106.49 69.66 110.31 69.79 112.74 72.25 C 116.92 75.67 116.73 83.16 112.24 86.26 C 108.09 89.79 100.89 88.39 98.57 83.40 C 95.88 78.83 98.30 72.15 103.33 70.45 Z" />
<path fill="#ffffff" opacity="1.00" d=" M 81.42 71.55 C 84.42 70.92 88.36 70.79 90.06 73.90 C 93.32 77.92 90.26 84.98 84.95 84.83 C 80.57 85.49 77.31 81.05 77.58 77.02 C 78.10 74.82 79.48 72.75 81.42 71.55 Z" />
<path fill="#ffffff" opacity="1.00" d=" M 141.39 71.69 C 152.90 69.94 165.60 70.61 175.36 77.62 C 184.78 83.90 190.45 94.66 191.88 105.74 C 183.00 105.88 174.11 105.81 165.23 105.79 C 163.61 102.37 162.23 98.39 158.83 96.32 C 154.14 93.93 148.14 94.02 143.59 96.70 C 139.58 99.50 138.59 104.62 137.94 109.15 C 136.30 122.87 138.90 136.90 135.65 150.46 C 133.72 160.42 126.89 169.05 118.10 173.93 C 106.07 179.92 91.47 179.87 79.12 174.83 C 66.75 169.33 58.96 156.54 57.15 143.44 C 66.22 143.52 75.28 143.49 84.34 143.46 C 85.60 148.33 88.66 153.88 94.18 154.52 C 98.36 154.91 103.58 155.19 106.46 151.49 C 111.46 145.53 110.75 137.25 110.64 129.99 C 110.48 116.53 109.82 102.25 115.99 89.86 C 121.51 80.73 130.98 74.02 141.39 71.69 Z" />
<path fill="#ffffff" opacity="1.00" d=" M 66.44 82.38 C 69.36 79.94 74.63 83.06 73.70 86.83 C 73.69 90.83 67.99 92.04 65.47 89.53 C 63.79 87.44 63.89 83.77 66.44 82.38 Z" />
<path fill="#ffffff" opacity="1.00" d=" M 61.39 92.45 C 62.92 92.00 64.46 93.38 64.71 94.83 C 63.87 95.79 62.83 97.00 61.39 96.54 C 59.90 95.68 59.92 93.33 61.39 92.45 Z" />
<path fill="#ffffff" opacity="1.00" d=" M 0.00 134.44 C 1.44 146.73 3.54 159.07 8.37 170.54 C 20.15 201.36 44.89 226.82 75.12 239.93 C 87.20 245.64 100.51 247.72 113.56 250.00 L 0.00 250.00 L 0.00 134.44 Z" />
<path fill="#ffffff" opacity="1.00" d=" M 247.54 150.88 C 248.51 145.43 249.19 139.93 250.00 134.46 L 250.00 250.00 L 134.45 250.00 C 139.93 249.18 145.43 248.51 150.89 247.55 C 170.97 243.21 190.07 234.09 205.72 220.73 C 226.89 202.94 241.93 177.98 247.54 150.88 Z" />
</g>
<g id="#30d683ff">
<path fill="#30d683" opacity="1.00" d=" M 115.56 0.00 L 135.44 0.00 C 143.73 1.37 152.16 2.22 160.20 4.80 C 185.08 11.99 207.43 27.23 223.42 47.57 C 233.91 60.68 241.40 76.06 245.86 92.22 C 248.18 99.80 248.75 107.75 250.00 115.55 L 250.00 134.46 C 249.19 139.93 248.51 145.43 247.54 150.88 C 241.93 177.98 226.89 202.94 205.72 220.73 C 190.07 234.09 170.97 243.21 150.89 247.55 C 145.43 248.51 139.93 249.18 134.45 250.00 L 113.56 250.00 C 100.51 247.72 87.20 245.64 75.12 239.93 C 44.89 226.82 20.15 201.36 8.37 170.54 C 3.54 159.07 1.44 146.73 0.00 134.44 L 0.00 115.55 C 1.07 106.58 2.62 97.63 5.04 88.91 C 10.04 72.63 18.16 57.24 29.27 44.28 C 47.25 22.85 72.58 7.74 100.02 2.29 C 105.19 1.44 110.38 0.76 115.56 0.00 M 103.33 70.45 C 98.30 72.15 95.88 78.83 98.57 83.40 C 100.89 88.39 108.09 89.79 112.24 86.26 C 116.73 83.16 116.92 75.67 112.74 72.25 C 110.31 69.79 106.49 69.66 103.33 70.45 M 81.42 71.55 C 79.48 72.75 78.10 74.82 77.58 77.02 C 77.31 81.05 80.57 85.49 84.95 84.83 C 90.26 84.98 93.32 77.92 90.06 73.90 C 88.36 70.79 84.42 70.92 81.42 71.55 M 141.39 71.69 C 130.98 74.02 121.51 80.73 115.99 89.86 C 109.82 102.25 110.48 116.53 110.64 129.99 C 110.75 137.25 111.46 145.53 106.46 151.49 C 103.58 155.19 98.36 154.91 94.18 154.52 C 88.66 153.88 85.60 148.33 84.34 143.46 C 75.28 143.49 66.22 143.52 57.15 143.44 C 58.96 156.54 66.75 169.33 79.12 174.83 C 91.47 179.87 106.07 179.92 118.10 173.93 C 126.89 169.05 133.72 160.42 135.65 150.46 C 138.90 136.90 136.30 122.87 137.94 109.15 C 138.59 104.62 139.58 99.50 143.59 96.70 C 148.14 94.02 154.14 93.93 158.83 96.32 C 162.23 98.39 163.61 102.37 165.23 105.79 C 174.11 105.81 183.00 105.88 191.88 105.74 C 190.45 94.66 184.78 83.90 175.36 77.62 C 165.60 70.61 152.90 69.94 141.39 71.69 M 66.44 82.38 C 63.89 83.77 63.79 87.44 65.47 89.53 C 67.99 92.04 73.69 90.83 73.70 86.83 C 74.63 83.06 69.36 79.94 66.44 82.38 M 61.39 92.45 C 59.92 93.33 59.90 95.68 61.39 96.54 C 62.83 97.00 63.87 95.79 64.71 94.83 C 64.46 93.38 62.92 92.00 61.39 92.45 M 57.38 102.24 C 56.21 103.72 58.81 105.27 59.80 103.84 C 60.97 102.36 58.36 100.80 57.38 102.24 M 165.51 145.25 C 164.74 147.70 164.07 150.32 162.26 152.24 C 158.49 156.56 151.81 157.23 146.66 155.29 C 142.68 153.76 140.81 149.66 138.75 146.25 C 136.85 151.24 135.80 156.58 133.09 161.24 C 131.13 164.72 128.27 167.56 125.41 170.29 C 129.07 174.85 134.85 176.94 140.22 178.70 C 152.30 181.51 165.80 180.30 176.27 173.26 C 185.77 167.05 190.96 156.07 192.91 145.19 C 183.78 144.92 174.63 144.80 165.51 145.25 Z" />
</g>
<g id="#5df9dbff">
<path fill="#5df9db" opacity="1.00" d=" M 57.38 102.24 C 58.36 100.80 60.97 102.36 59.80 103.84 C 58.81 105.27 56.21 103.72 57.38 102.24 Z" />
<path fill="#5df9db" opacity="1.00" d=" M 165.51 145.25 C 174.63 144.80 183.78 144.92 192.91 145.19 C 190.96 156.07 185.77 167.05 176.27 173.26 C 165.80 180.30 152.30 181.51 140.22 178.70 C 134.85 176.94 129.07 174.85 125.41 170.29 C 128.27 167.56 131.13 164.72 133.09 161.24 C 135.80 156.58 136.85 151.24 138.75 146.25 C 140.81 149.66 142.68 153.76 146.66 155.29 C 151.81 157.23 158.49 156.56 162.26 152.24 C 164.07 150.32 164.74 147.70 165.51 145.25 Z" />
</g>
</svg>

<?xml version="1.0" encoding="utf-8"?>
<!-- Generator: Adobe Illustrator 26.0.3, SVG Export Plug-In . SVG Version: 6.00 Build 0)  -->
<svg version="1.1" id="Layer_1" xmlns="http://www.w3.org/2000/svg" xmlns:xlink="http://www.w3.org/1999/xlink" x="0px" y="0px"
	 viewBox="0 0 250 250" style="enable-background:new 0 0 250 250;" xml:space="preserve">
<style type="text/css">
	.st0{fill:#FFFFFF;}
	.st1{fill:#30D683;}
	.st2{fill:#5DF9DB;}
</style>
<g id="_x23_ffffffff">
	<path class="st0" d="M103.3,70.4c3.2-0.8,7-0.7,9.4,1.8c4.2,3.4,4,10.9-0.5,14c-4.2,3.5-11.3,2.1-13.7-2.9
		C95.9,78.8,98.3,72.2,103.3,70.4z"/>
	<path class="st0" d="M81.4,71.6c3-0.6,6.9-0.8,8.6,2.3c3.3,4,0.2,11.1-5.1,10.9c-4.4,0.7-7.6-3.8-7.4-7.8
		C78.1,74.8,79.5,72.8,81.4,71.6z"/>
	<path class="st0" d="M141.4,71.7c11.5-1.8,24.2-1.1,34,5.9c9.4,6.3,15.1,17,16.5,28.1c-8.9,0.1-17.8,0.1-26.7,0.1
		c-1.6-3.4-3-7.4-6.4-9.5c-4.7-2.4-10.7-2.3-15.2,0.4c-4,2.8-5,7.9-5.6,12.5c-1.6,13.7,1,27.7-2.3,41.3c-1.9,10-8.8,18.6-17.5,23.5
		c-12,6-26.6,5.9-39,0.9c-12.4-5.5-20.2-18.3-22-31.4c9.1,0.1,18.1,0.1,27.2,0c1.3,4.9,4.3,10.4,9.8,11.1c4.2,0.4,9.4,0.7,12.3-3
		c5-6,4.3-14.2,4.2-21.5c-0.2-13.5-0.8-27.7,5.3-40.1C121.5,80.7,131,74,141.4,71.7z"/>
	<path class="st0" d="M66.4,82.4c2.9-2.4,8.2,0.7,7.3,4.5c0,4-5.7,5.2-8.2,2.7C63.8,87.4,63.9,83.8,66.4,82.4z"/>
	<path class="st0" d="M61.4,92.4c1.5-0.4,3.1,0.9,3.3,2.4c-0.8,1-1.9,2.2-3.3,1.7C59.9,95.7,59.9,93.3,61.4,92.4z"/>
</g>
<g id="_x23_30d683ff">
	<path class="st1" d="M115.6,0h19.9c8.3,1.4,16.7,2.2,24.8,4.8c24.9,7.2,47.2,22.4,63.2,42.8c10.5,13.1,18,28.5,22.4,44.7
		c2.3,7.6,2.9,15.5,4.1,23.3v18.9c-0.8,5.5-1.5,11-2.5,16.4c-5.6,27.1-20.6,52.1-41.8,69.8c-15.6,13.4-34.8,22.5-54.8,26.8
		c-5.5,1-11,1.6-16.4,2.4h-20.9c-13-2.3-26.4-4.4-38.4-10.1c-30.2-13.1-55-38.6-66.8-69.4c-4.8-11.5-6.9-23.8-8.4-36.1v-18.9
		c1.1-9,2.6-17.9,5-26.6c5-16.3,13.1-31.7,24.2-44.6c18-21.4,43.3-36.5,70.8-42C105.2,1.4,110.4,0.8,115.6,0 M103.3,70.4
		c-5,1.7-7.5,8.4-4.8,13c2.3,5,9.5,6.4,13.7,2.9c4.5-3.1,4.7-10.6,0.5-14C110.3,69.8,106.5,69.7,103.3,70.4 M81.4,71.6
		c-1.9,1.2-3.3,3.3-3.8,5.5c-0.3,4,3,8.5,7.4,7.8c5.3,0.2,8.4-6.9,5.1-10.9C88.4,70.8,84.4,70.9,81.4,71.6 M141.4,71.7
		c-10.4,2.3-19.9,9-25.4,18.2c-6.2,12.4-5.5,26.7-5.3,40.1c0.1,7.3,0.8,15.5-4.2,21.5c-2.9,3.7-8.1,3.4-12.3,3
		c-5.5-0.6-8.6-6.2-9.8-11.1c-9.1,0-18.1,0.1-27.2,0c1.8,13.1,9.6,25.9,22,31.4c12.3,5,26.9,5.1,39-0.9c8.8-4.9,15.6-13.5,17.5-23.5
		c3.2-13.6,0.7-27.6,2.3-41.3c0.6-4.5,1.6-9.7,5.6-12.5c4.6-2.7,10.6-2.8,15.2-0.4c3.4,2.1,4.8,6.1,6.4,9.5c8.9,0,17.8,0.1,26.7-0.1
		c-1.4-11.1-7.1-21.8-16.5-28.1C165.6,70.6,152.9,69.9,141.4,71.7 M66.4,82.4c-2.6,1.4-2.7,5.1-1,7.2c2.5,2.5,8.2,1.3,8.2-2.7
		C74.6,83.1,69.4,79.9,66.4,82.4 M61.4,92.4c-1.5,0.9-1.5,3.2,0,4.1c1.4,0.5,2.5-0.8,3.3-1.7C64.5,93.4,62.9,92,61.4,92.4
		 M57.4,102.2c-1.2,1.5,1.4,3,2.4,1.6C61,102.4,58.4,100.8,57.4,102.2 M165.5,145.2c-0.8,2.4-1.4,5.1-3.2,7c-3.8,4.3-10.4,5-15.6,3
		c-4-1.5-5.9-5.6-7.9-9c-1.9,5-2.9,10.3-5.7,15c-2,3.5-4.8,6.3-7.7,9c3.7,4.6,9.4,6.7,14.8,8.4c12.1,2.8,25.6,1.6,36.1-5.4
		c9.5-6.2,14.7-17.2,16.6-28.1C183.8,144.9,174.6,144.8,165.5,145.2z"/>
</g>
<g id="_x23_5df9dbff">
	<path class="st2" d="M57.4,102.2c1-1.4,3.6,0.1,2.4,1.6C58.8,105.3,56.2,103.7,57.4,102.2z"/>
	<path class="st2" d="M165.5,145.2c9.1-0.4,18.3-0.3,27.4-0.1c-1.9,10.9-7.1,21.9-16.6,28.1c-10.5,7-24,8.2-36.1,5.4
		c-5.4-1.8-11.1-3.8-14.8-8.4c2.9-2.7,5.7-5.6,7.7-9c2.7-4.7,3.8-10,5.7-15c2.1,3.4,3.9,7.5,7.9,9c5.1,1.9,11.8,1.3,15.6-3
		C164.1,150.3,164.7,147.7,165.5,145.2z"/>
</g>
</svg>
